WebUI/wwwroot/MuberraSabuncu/images/icon-benefits-1.svg

<svg width="29" height="31" viewBox="0 0 29 31" fill="none" xmlns="http://www.w3.org/2000/svg">
<path d="M6.03516 0.944824L4.58252 9.08447V12.1948V13.4448H4.83643C5.21507 15.9598 6.60882 18.0537 8.65478 19.3921C4.08173 21.2524 0.83252 25.7139 0.83252 30.9448H3.33252C3.33252 27.7767 4.79616 24.9646 7.08252 23.1348V23.9624L13.3325 30.2124L19.5825 23.9624V23.1348C21.8689 24.9646 23.3325 27.7767 23.3325 30.9448H25.8325C25.8325 25.7139 22.5833 21.2524 18.0103 19.3921C20.0562 18.0537 21.45 15.9598 21.8286 13.4448H22.0825V12.1948V9.08447L20.6299 0.944824H19.5825H6.03516ZM25.8325 0.944824V10.9448H28.3325V0.944824H25.8325ZM8.12988 3.44482H18.5352L19.5825 9.30664V10.9448H7.08252V9.30664L8.12988 3.44482ZM12.0825 4.69482V5.94482H10.8325V8.44482H12.0825V9.69482H14.5825V8.44482H15.8325V5.94482H14.5825V4.69482H12.0825ZM7.33398 13.4448H19.3311C18.7392 16.2847 16.3553 18.4448 13.3325 18.4448C10.3098 18.4448 7.9258 16.2847 7.33398 13.4448ZM25.8325 13.4448V15.9448H28.3325V13.4448H25.8325ZM13.3325 20.9448C14.6611 20.9448 15.9246 21.208 17.0825 21.6748V22.9272L13.3325 26.6772L9.58252 22.9272V21.6748C10.7405 21.208 12.0039 20.9448 13.3325 20.9448Z" fill="white"/>
</svg>

<?xml version="1.0" encoding="UTF-8"?>
<svg xmlns="http://www.w3.org/2000/svg" version="1.1" viewBox="0 0 29 31">
  <defs>
    <style>
      .cls-1 {
        fill: #fff;
      }
    </style>
  </defs>
  <!-- Generator: Adobe Illustrator 28.7.1, SVG Export Plug-In . SVG Version: 1.2.0 Build 142)  -->
  <g>
    <g id="katman_1">
      <path class="cls-1" d="M6,.9l-1.5,8.1v4.4h.3c.4,2.5,1.8,4.6,3.8,5.9-4.6,1.9-7.8,6.3-7.8,11.6h2.5c0-3.2,1.5-6,3.8-7.8v.8l6.2,6.2,6.2-6.2v-.8c2.3,1.8,3.8,4.6,3.8,7.8h2.5c0-5.2-3.2-9.7-7.8-11.6,2-1.3,3.4-3.4,3.8-5.9h.3v-4.4l-1.5-8.1H6ZM25.8.9v10h2.5V.9h-2.5ZM8.1,3.4h10.4l1,5.9v1.6H7.1v-1.6l1-5.9ZM7.3,13.4h12c-.6,2.8-3,5-6,5s-5.4-2.2-6-5ZM25.8,13.4v2.5h2.5v-2.5h-2.5ZM13.3,20.9c1.3,0,2.6.3,3.8.7v1.3l-3.8,3.8-3.7-3.8v-1.3c1.2-.5,2.4-.7,3.7-.7Z"/>
    </g>
  </g>
</svg>
